packages/icons/web/select_collapse_small.svg

<svg width="24" height="24" viewBox="0 0 24 24" fill="none" xmlns="http://www.w3.org/2000/svg">
<path fill-rule="evenodd" clip-rule="evenodd" d="M8.29289 7.70711L11.2929 10.7071C11.6834 11.0976 12.3166 11.0976 12.7071 10.7071L15.7071 7.70711C16.0976 7.31658 16.0976 6.68342 15.7071 6.29289C15.3166 5.90237 14.6834 5.90237 14.2929 6.29289L12 8.58579L9.70711 6.29289C9.31658 5.90237 8.68342 5.90237 8.29289 6.29289C7.90237 6.68342 7.90237 7.31658 8.29289 7.70711ZM8.29289 16.2929L11.2929 13.2929C11.6834 12.9024 12.3166 12.9024 12.7071 13.2929L15.7071 16.2929C16.0976 16.6834 16.0976 17.3166 15.7071 17.7071C15.3166 18.0976 14.6834 18.0976 14.2929 17.7071L12 15.4142L9.70711 17.7071C9.31658 18.0976 8.68342 18.0976 8.29289 17.7071C7.90237 17.3166 7.90237 16.6834 8.29289 16.2929Z" fill="#212933"/>
</svg>

<svg width="24" height="24" fill="none" xmlns="http://www.w3.org/2000/svg">
    <path fill-rule="evenodd" clip-rule="evenodd" d="M8.293 7.707l3 3a1 1 0 001.414 0l3-3a1 1 0 00-1.414-1.414L12 8.586 9.707 6.293a1 1 0 00-1.414 1.414zm0 8.586l3-3a1 1 0 011.414 0l3 3a1 1 0 01-1.414 1.414L12 15.414l-2.293 2.293a1 1 0 01-1.414-1.414z" fill="currentColor"/>
</svg>
